X:202
T:Hometown Blues from Scenechronized
C:Arranged by Lou Reid
N:Transcribed and Transcribed by Larry Tanner
R:bluegrass
L:1/8
Q:1/4=210
M:4/4
K:C
z6 DE | "D"^FA B2 d2 zd' | z4 a2 b2 | d'2 c'b ab ^fa | ef dB [dA]z [A2E2] | z4 cB A^F | 
BA ^FE D2 DE | "A"^FA2A FE E2 | E^F Ac ^ce cB | "D"A^F3 =F^F d=F | ^Fd =F^F d=F ^Fd | 
"G"EF dE Fd EF | dE Fd2^F dd | "D"z2 d2 c2 B2 | "A"A2 G2 EF DB, | "D"D3F ^FA Bd | 
d'z7/1 | z8 | z8 | z8 | z8 | z8 | z8 | z8 | z8 | z8 | 


